Adwaita++/actions/22/mail-send-receive.svg

<svg height="22" viewBox="0 0 22 22" width="22" xmlns="http://www.w3.org/2000/svg">
  <path d="m5 .99804688-4 4.00000002h2v5h4v-5h2zm4 5.00000002v5.0000001h-2l4 4 4-4h-2v-5.0000001z" fill="#444" transform="translate(3 3)"/>
</svg>

<svg xmlns="http://www.w3.org/2000/svg" width="22" height="22" viewBox="0 0 22 22">
 <defs>
  <style id="current-color-scheme" type="text/css">
   .ColorScheme-Text { color:#444444; } .ColorScheme-Highlight { color:#4285f4; }
  </style>
 </defs>
 <path style="fill:currentColor" class="ColorScheme-Text" d="M 5 0.99804688 L 1 4.9980469 L 3 4.9980469 L 3 9.9980469 L 7 9.9980469 L 7 4.9980469 L 9 4.9980469 L 5 0.99804688 z M 9 5.9980469 L 9 10.998047 L 7 10.998047 L 11 14.998047 L 15 10.998047 L 13 10.998047 L 13 5.9980469 L 9 5.9980469 z" transform="translate(3 3)"/>
</svg>
